bernoullicharts/arcsin_x_2_bound.svg

<?xml version="1.0" encoding="utf-8" standalone="no"?>
<!DOCTYPE svg PUBLIC "-//W3C//DTD SVG 1.1//EN"
  "http://www.w3.org/Graphics/SVG/1.1/DTD/svg11.dtd">
<!-- Created with matplotlib (https://matplotlib.org/) -->
<svg height="345.6pt" version="1.1" viewBox="0 0 460.8 345.6" width="460.8pt" xmlns="http://www.w3.org/2000/svg" xmlns:xlink="http://www.w3.org/1999/xlink">
 <defs>
  <style type="text/css">
*{stroke-linecap:butt;stroke-linejoin:round;}
  </style>
 </defs>
 <g id="figure_1">
  <g id="patch_1">
   <path d="M 0 345.6 
L 460.8 345.6 
L 460.8 0 
L 0 0 
z
" style="fill:#ffffff;"/>
  </g>
  <g id="axes_1">
   <g id="patch_2">
    <path d="M 57.6 307.584 
L 414.72 307.584 
L 414.72 41.472 
L 57.6 41.472 
z
" style="fill:#ffffff;"/>
   </g>
   <g id="matplotlib.axis_1">
    <g id="xtick_1">
     <g id="line2d_1">
      <defs>
       <path d="M 0 0 
L 0 3.5 
" id="m18e38d5c7e" style="stroke:#000000;stroke-width:0.8;"/>
      </defs>
      <g>
       <use style="stroke:#000000;stroke-width:0.8;" x="73.800255" xlink:href="#m18e38d5c7e" y="307.584"/>
      </g>
     </g>
     <g id="text_1">
      <text style="font-family:DejaVu Sans;font-size:10px;font-style:normal;font-weight:normal;text-anchor:middle;" transform="rotate(-0, 73.800255, 322.182437)" x="73.800255" y="322.182437">0.0</text>
     </g>
    </g>
    <g id="xtick_2">
     <g id="line2d_2">
      <g>
       <use style="stroke:#000000;stroke-width:0.8;" x="138.744153" xlink:href="#m18e38d5c7e" y="307.584"/>
      </g>
     </g>
     <g id="text_2">
      <text style="font-family:DejaVu Sans;font-size:10px;font-style:normal;font-weight:normal;text-anchor:middle;" transform="rotate(-0, 138.744153, 322.182437)" x="138.744153" y="322.182437">0.2</text>
     </g>
    </g>
    <g id="xtick_3">
     <g id="line2d_3">
      <g>
       <use style="stroke:#000000;stroke-width:0.8;" x="203.688051" xlink:href="#m18e38d5c7e" y="307.584"/>
      </g>
     </g>
     <g id="text_3">
      <text style="font-family:DejaVu Sans;font-size:10px;font-style:normal;font-weight:normal;text-anchor:middle;" transform="rotate(-0, 203.688051, 322.182437)" x="203.688051" y="322.182437">0.4</text>
     </g>
    </g>
    <g id="xtick_4">
     <g id="line2d_4">
      <g>
       <use style="stroke:#000000;stroke-width:0.8;" x="268.631949" xlink:href="#m18e38d5c7e" y="307.584"/>
      </g>
     </g>
     <g id="text_4">
      <text style="font-family:DejaVu Sans;font-size:10px;font-style:normal;font-weight:normal;text-anchor:middle;" transform="rotate(-0, 268.631949, 322.182437)" x="268.631949" y="322.182437">0.6</text>
     </g>
    </g>
    <g id="xtick_5">
     <g id="line2d_5">
      <g>
       <use style="stroke:#000000;stroke-width:0.8;" x="333.575847" xlink:href="#m18e38d5c7e" y="307.584"/>
      </g>
     </g>
     <g id="text_5">
      <text style="font-family:DejaVu Sans;font-size:10px;font-style:normal;font-weight:normal;text-anchor:middle;" transform="rotate(-0, 333.575847, 322.182437)" x="333.575847" y="322.182437">0.8</text>
     </g>
    </g>
    <g id="xtick_6">
     <g id="line2d_6">
      <g>
       <use style="stroke:#000000;stroke-width:0.8;" x="398.519745" xlink:href="#m18e38d5c7e" y="307.584"/>
      </g>
     </g>
     <g id="text_6">
      <text style="font-family:DejaVu Sans;font-size:10px;font-style:normal;font-weight:normal;text-anchor:middle;" transform="rotate(-0, 398.519745, 322.182437)" x="398.519745" y="322.182437">1.0</text>
     </g>
    </g>
    <g id="text_7">
     <text style="font-family:DejaVu Sans;font-size:10px;font-style:normal;font-weight:normal;text-anchor:middle;" transform="rotate(-0, 236.16, 335.860562)" x="236.16" y="335.860562">Input Coin's Heads Probability (λ)</text>
    </g>
   </g>
   <g id="matplotlib.axis_2">
    <g id="ytick_1">
     <g id="line2d_7">
      <defs>
       <path d="M 0 0 
L -3.5 0 
" id="m254bce93e3" style="stroke:#000000;stroke-width:0.8;"/>
      </defs>
      <g>
       <use style="stroke:#000000;stroke-width:0.8;" x="57.6" xlink:href="#m254bce93e3" y="296.2192"/>
      </g>
     </g>
     <g id="text_8">
      <text style="font-family:DejaVu Sans;font-size:10px;font-style:normal;font-weight:normal;text-anchor:end;" transform="rotate(-0, 50.6, 300.018418)" x="50.6" y="300.018418">0</text>
     </g>
    </g>
    <g id="ytick_2">
     <g id="line2d_8">
      <g>
       <use style="stroke:#000000;stroke-width:0.8;" x="57.6" xlink:href="#m254bce93e3" y="262.172448"/>
      </g>
     </g>
     <g id="text_9">
      <text style="font-family:DejaVu Sans;font-size:10px;font-style:normal;font-weight:normal;text-anchor:end;" transform="rotate(-0, 50.6, 265.971667)" x="50.6" y="265.971667">20</text>
     </g>
    </g>
    <g id="ytick_3">
     <g id="line2d_9">
      <g>
       <use style="stroke:#000000;stroke-width:0.8;" x="57.6" xlink:href="#m254bce93e3" y="228.125696"/>
      </g>
     </g>
     <g id="text_10">
      <text style="font-family:DejaVu Sans;font-size:10px;font-style:normal;font-weight:normal;text-anchor:end;" transform="rotate(-0, 50.6, 231.924915)" x="50.6" y="231.924915">40</text>
     </g>
    </g>
    <g id="ytick_4">
     <g id="line2d_10">
      <g>
       <use style="stroke:#000000;stroke-width:0.8;" x="57.6" xlink:href="#m254bce93e3" y="194.078944"/>
      </g>
     </g>
     <g id="text_11">
      <text style="font-family:DejaVu Sans;font-size:10px;font-style:normal;font-weight:normal;text-anchor:end;" transform="rotate(-0, 50.6, 197.878163)" x="50.6" y="197.878163">60</text>
     </g>
    </g>
    <g id="ytick_5">
     <g id="line2d_11">
      <g>
       <use style="stroke:#000000;stroke-width:0.8;" x="57.6" xlink:href="#m254bce93e3" y="160.032193"/>
      </g>
     </g>
     <g id="text_12">
      <text style="font-family:DejaVu Sans;font-size:10px;font-style:normal;font-weight:normal;text-anchor:end;" transform="rotate(-0, 50.6, 163.831411)" x="50.6" y="163.831411">80</text>
     </g>
    </g>
    <g id="ytick_6">
     <g id="line2d_12">
      <g>
       <use style="stroke:#000000;stroke-width:0.8;" x="57.6" xlink:href="#m254bce93e3" y="125.985441"/>
      </g>
     </g>
     <g id="text_13">
      <text style="font-family:DejaVu Sans;font-size:10px;font-style:normal;font-weight:normal;text-anchor:end;" transform="rotate(-0, 50.6, 129.78466)" x="50.6" y="129.78466">100</text>
     </g>
    </g>
    <g id="ytick_7">
     <g id="line2d_13">
      <g>
       <use style="stroke:#000000;stroke-width:0.8;" x="57.6" xlink:href="#m254bce93e3" y="91.938689"/>
      </g>
     </g>
     <g id="text_14">
      <text style="font-family:DejaVu Sans;font-size:10px;font-style:normal;font-weight:normal;text-anchor:end;" transform="rotate(-0, 50.6, 95.737908)" x="50.6" y="95.737908">120</text>
     </g>
    </g>
    <g id="ytick_8">
     <g id="line2d_14">
      <g>
       <use style="stroke:#000000;stroke-width:0.8;" x="57.6" xlink:href="#m254bce93e3" y="57.891937"/>
      </g>
     </g>
     <g id="text_15">
      <text style="font-family:DejaVu Sans;font-size:10px;font-style:normal;font-weight:normal;text-anchor:end;" transform="rotate(-0, 50.6, 61.691156)" x="50.6" y="61.691156">140</text>
     </g>
    </g>
    <g id="text_16">
     <text style="font-family:DejaVu Sans;font-size:10px;font-style:normal;font-weight:normal;text-anchor:middle;" transform="rotate(-90, 25.432813, 174.528)" x="25.432813" y="174.528">Coin Flips Needed</text>
    </g>
   </g>
   <g id="line2d_15">
    <path clip-path="url(#p71856e9eb0)" d="M 73.832727 295.368073 
L 77.112066 295.37232 
L 80.391405 295.376468 
L 83.670744 295.380519 
L 86.950083 295.384476 
L 90.229421 295.38834 
L 93.50876 295.392114 
L 96.788099 295.395799 
L 100.067438 295.399397 
L 103.346777 295.40291 
L 106.626116 295.40634 
L 109.905455 295.409688 
L 113.184793 295.412955 
L 116.464132 295.416143 
L 119.743471 295.419253 
L 123.02281 295.422287 
L 126.302149 295.425246 
L 129.581488 295.42813 
L 132.860826 295.430941 
L 136.140165 295.43368 
L 139.419504 295.436348 
L 142.698843 295.438945 
L 145.978182 295.441474 
L 149.257521 295.443933 
L 152.53686 295.446324 
L 155.816198 295.448648 
L 159.095537 295.450905 
L 162.374876 295.453096 
L 165.654215 295.455221 
L 168.933554 295.45728 
L 172.212893 295.459275 
L 175.492231 295.461204 
L 178.77157 295.463069 
L 182.050909 295.46487 
L 185.330248 295.466607 
L 188.609587 295.468279 
L 191.888926 295.469887 
L 195.168264 295.471431 
L 198.447603 295.472911 
L 201.726942 295.474325 
L 205.006281 295.475675 
L 208.28562 295.47696 
L 211.564959 295.478179 
L 214.844298 295.479331 
L 218.123636 295.480417 
L 221.402975 295.481435 
L 224.682314 295.482385 
L 227.961653 295.483265 
L 231.240992 295.484076 
L 234.520331 295.484814 
L 237.799669 295.485481 
L 241.079008 295.486073 
L 244.358347 295.48659 
L 247.637686 295.487029 
L 250.917025 295.48739 
L 254.196364 295.48767 
L 257.475702 295.487866 
L 260.755041 295.487977 
L 264.03438 295.488 
L 267.313719 295.487932 
L 270.593058 295.48777 
L 273.872397 295.48751 
L 277.151736 295.48715 
L 280.431074 295.486684 
L 283.710413 295.486108 
L 286.989752 295.485418 
L 290.269091 295.484607 
L 293.54843 295.483671 
L 296.827769 295.482602 
L 300.107107 295.481394 
L 303.386446 295.480037 
L 306.665785 295.478524 
L 309.945124 295.476845 
L 313.224463 295.474988 
L 316.503802 295.47294 
L 319.78314 295.470689 
L 323.062479 295.468217 
L 326.341818 295.465508 
L 329.621157 295.46254 
L 332.900496 295.459291 
L 336.179835 295.455733 
L 339.459174 295.451835 
L 342.738512 295.447561 
L 346.017851 295.442867 
L 349.29719 295.437702 
L 352.576529 295.432004 
L 355.855868 295.4257 
L 359.135207 295.418697 
L 362.414545 295.410881 
L 365.693884 295.402105 
L 368.973223 295.392182 
L 372.252562 295.380859 
L 375.531901 295.367793 
L 378.81124 295.35249 
L 382.090579 295.334217 
L 385.369917 295.311794 
L 388.649256 295.283142 
L 391.928595 295.243989 
L 395.207934 295.182619 
L 398.487273 293.752695 
" style="fill:none;stroke:#1f77b4;stroke-linecap:square;stroke-width:1.5;"/>
   </g>
   <g id="line2d_16">
    <path clip-path="url(#p71856e9eb0)" d="M 73.832727 291.530962 
L 77.112066 291.575223 
L 80.391405 291.527557 
L 83.670744 291.565009 
L 86.950083 291.422012 
L 90.229421 291.520748 
L 93.50876 291.633102 
L 96.788099 291.565009 
L 100.067438 291.599055 
L 103.346777 291.612674 
L 106.626116 291.694386 
L 109.905455 291.55139 
L 113.184793 291.599055 
L 116.464132 291.619483 
L 119.743471 291.616079 
L 123.02281 291.575223 
L 126.302149 291.71141 
L 129.581488 291.605865 
L 132.860826 291.55139 
L 136.140165 291.738647 
L 139.419504 291.626293 
L 142.698843 291.595651 
L 145.978182 291.561604 
L 149.257521 291.565009 
L 152.53686 291.639912 
L 155.816198 291.622888 
L 159.095537 291.66034 
L 162.374876 291.769289 
L 165.654215 291.667149 
L 168.933554 291.50032 
L 172.212893 291.626293 
L 175.492231 291.646721 
L 178.77157 291.622888 
L 182.050909 291.585437 
L 185.330248 291.725028 
L 188.609587 291.469678 
L 191.888926 291.612674 
L 195.168264 291.626293 
L 198.447603 291.568413 
L 201.726942 291.667149 
L 205.006281 291.55139 
L 208.28562 291.687577 
L 211.564959 291.599055 
L 214.844298 291.690982 
L 218.123636 291.609269 
L 221.402975 291.44244 
L 224.682314 291.534367 
L 227.961653 291.616079 
L 231.240992 291.510534 
L 234.520331 291.55139 
L 237.799669 291.452654 
L 241.079008 291.456059 
L 244.358347 291.534367 
L 247.637686 291.360728 
L 250.917025 291.367537 
L 254.196364 291.408394 
L 257.475702 291.333491 
L 260.755041 291.422012 
L 264.03438 291.3403 
L 267.313719 291.370942 
L 270.593058 291.425417 
L 273.872397 291.353919 
L 277.151736 291.350514 
L 280.431074 291.272207 
L 283.710413 291.23816 
L 286.989752 291.115592 
L 290.269091 291.132615 
L 293.54843 291.057712 
L 296.827769 291.394775 
L 300.107107 291.200708 
L 303.386446 291.013451 
L 306.665785 291.040689 
L 309.945124 291.139424 
L 313.224463 290.982809 
L 316.503802 291.084949 
L 319.78314 290.836408 
L 323.062479 290.870455 
L 326.341818 290.802361 
L 329.621157 290.615104 
L 332.900496 290.386991 
L 336.179835 290.390396 
L 339.459174 290.339326 
L 342.738512 290.325707 
L 346.017851 290.298469 
L 349.29719 290.318898 
L 352.576529 290.383586 
L 355.855868 289.995453 
L 359.135207 289.648177 
L 362.414545 289.896718 
L 365.693884 289.51199 
L 368.973223 289.648177 
L 372.252562 288.858292 
L 375.531901 287.904983 
L 378.81124 288.044575 
L 382.090579 287.431733 
L 385.369917 287.853913 
L 388.649256 286.284357 
L 391.928595 284.762468 
L 395.207934 282.260031 
L 398.487273 53.568 
" style="fill:none;stroke:#ff7f0e;stroke-linecap:square;stroke-width:1.5;"/>
   </g>
   <g id="patch_3">
    <path d="M 57.6 307.584 
L 57.6 41.472 
" style="fill:none;stroke:#000000;stroke-linecap:square;stroke-linejoin:miter;stroke-width:0.8;"/>
   </g>
   <g id="patch_4">
    <path d="M 414.72 307.584 
L 414.72 41.472 
" style="fill:none;stroke:#000000;stroke-linecap:square;stroke-linejoin:miter;stroke-width:0.8;"/>
   </g>
   <g id="patch_5">
    <path d="M 57.6 307.584 
L 414.72 307.584 
" style="fill:none;stroke:#000000;stroke-linecap:square;stroke-linejoin:miter;stroke-width:0.8;"/>
   </g>
   <g id="patch_6">
    <path d="M 57.6 41.472 
L 414.72 41.472 
" style="fill:none;stroke:#000000;stroke-linecap:square;stroke-linejoin:miter;stroke-width:0.8;"/>
   </g>
   <g id="text_17">
    <text style="font-family:DejaVu Sans;font-size:12px;font-style:normal;font-weight:normal;text-anchor:middle;" transform="rotate(-0, 236.16, 35.472)" x="236.16" y="35.472">Coin Flips for arcsin(x)/2</text>
   </g>
   <g id="legend_1">
    <g id="patch_7">
     <path d="M 64.6 78.82825 
L 245.05625 78.82825 
Q 247.05625 78.82825 247.05625 76.82825 
L 247.05625 48.472 
Q 247.05625 46.472 245.05625 46.472 
L 64.6 46.472 
Q 62.6 46.472 62.6 48.472 
L 62.6 76.82825 
Q 62.6 78.82825 64.6 78.82825 
z
" style="fill:#ffffff;opacity:0.8;stroke:#cccccc;stroke-linejoin:miter;"/>
    </g>
    <g id="line2d_17">
     <path d="M 66.6 54.570437 
L 86.6 54.570437 
" style="fill:none;stroke:#1f77b4;stroke-linecap:square;stroke-width:1.5;"/>
    </g>
    <g id="line2d_18"/>
    <g id="text_18">
     <text style="font-family:DejaVu Sans;font-size:10px;font-style:normal;font-weight:normal;text-anchor:start;" transform="rotate(-0, 94.6, 58.070437)" x="94.6" y="58.070437">Coin Flip Lower Bound</text>
    </g>
    <g id="line2d_19">
     <path d="M 66.6 69.248562 
L 86.6 69.248562 
" style="fill:none;stroke:#ff7f0e;stroke-linecap:square;stroke-width:1.5;"/>
    </g>
    <g id="line2d_20"/>
    <g id="text_19">
     <text style="font-family:DejaVu Sans;font-size:10px;font-style:normal;font-weight:normal;text-anchor:start;" transform="rotate(-0, 94.6, 72.748562)" x="94.6" y="72.748562">Avg. Coins Flipped arcsin(x)/2</text>
    </g>
   </g>
  </g>
 </g>
 <defs>
  <clipPath id="p71856e9eb0">
   <rect height="266.112" width="357.12" x="57.6" y="41.472"/>
  </clipPath>
 </defs>
</svg>

<svg height="460.8" viewBox="0 0 460.8 345.6" width="614.4" xmlns="http://www.w3.org/2000/svg" xmlns:xlink="http://www.w3.org/1999/xlink"><defs><style>*{stroke-linecap:butt;stroke-linejoin:round}</style></defs><g id="figure_1"><path d="M0 345.6h460.8V0H0z" fill="#fff" id="patch_1"/><g id="axes_1"><path d="M57.6 307.584h357.12V41.472H57.6z" fill="#fff" id="patch_2"/><g id="matplotlib.axis_1"><g id="xtick_1"><g id="line2d_1"><defs><path d="M0 0v3.5" id="m18e38d5c7e" stroke="#000" stroke-width=".8"/></defs><use x="73.8" xlink:href="#m18e38d5c7e" y="307.584" stroke="#000" stroke-width=".8"/></g><text x="73.8" y="322.182" font-family="DejaVu Sans" font-size="10" font-weight="400" text-anchor="middle" id="text_1">0.0</text></g><g id="xtick_2"><use x="138.744" xlink:href="#m18e38d5c7e" y="307.584" stroke="#000" stroke-width=".8" id="line2d_2"/><text x="138.744" y="322.182" font-family="DejaVu Sans" font-size="10" font-weight="400" text-anchor="middle" id="text_2">0.2</text></g><g id="xtick_3"><use x="203.688" xlink:href="#m18e38d5c7e" y="307.584" stroke="#000" stroke-width=".8" id="line2d_3"/><text x="203.688" y="322.182" font-family="DejaVu Sans" font-size="10" font-weight="400" text-anchor="middle" id="text_3">0.4</text></g><g id="xtick_4"><use x="268.632" xlink:href="#m18e38d5c7e" y="307.584" stroke="#000" stroke-width=".8" id="line2d_4"/><text x="268.632" y="322.182" font-family="DejaVu Sans" font-size="10" font-weight="400" text-anchor="middle" id="text_4">0.6</text></g><g id="xtick_5"><use x="333.576" xlink:href="#m18e38d5c7e" y="307.584" stroke="#000" stroke-width=".8" id="line2d_5"/><text x="333.576" y="322.182" font-family="DejaVu Sans" font-size="10" font-weight="400" text-anchor="middle" id="text_5">0.8</text></g><g id="xtick_6"><use x="398.52" xlink:href="#m18e38d5c7e" y="307.584" stroke="#000" stroke-width=".8" id="line2d_6"/><text x="398.52" y="322.182" font-family="DejaVu Sans" font-size="10" font-weight="400" text-anchor="middle" id="text_6">1.0</text></g><text x="236.16" y="335.861" font-family="DejaVu Sans" font-size="10" font-weight="400" text-anchor="middle" id="text_7">Input Coin&apos;s Heads Probability (λ)</text></g><g id="matplotlib.axis_2"><g id="ytick_1"><g id="line2d_7"><defs><path d="M0 0h-3.5" id="m254bce93e3" stroke="#000" stroke-width=".8"/></defs><use x="57.6" xlink:href="#m254bce93e3" y="296.219" stroke="#000" stroke-width=".8"/></g><text x="50.6" y="300.018" font-family="DejaVu Sans" font-size="10" font-weight="400" text-anchor="end" id="text_8">0</text></g><g id="ytick_2"><use x="57.6" xlink:href="#m254bce93e3" y="262.172" stroke="#000" stroke-width=".8" id="line2d_8"/><text x="50.6" y="265.972" font-family="DejaVu Sans" font-size="10" font-weight="400" text-anchor="end" id="text_9">20</text></g><g id="ytick_3"><use x="57.6" xlink:href="#m254bce93e3" y="228.126" stroke="#000" stroke-width=".8" id="line2d_9"/><text x="50.6" y="231.925" font-family="DejaVu Sans" font-size="10" font-weight="400" text-anchor="end" id="text_10">40</text></g><g id="ytick_4"><use x="57.6" xlink:href="#m254bce93e3" y="194.079" stroke="#000" stroke-width=".8" id="line2d_10"/><text x="50.6" y="197.878" font-family="DejaVu Sans" font-size="10" font-weight="400" text-anchor="end" id="text_11">60</text></g><g id="ytick_5"><use x="57.6" xlink:href="#m254bce93e3" y="160.032" stroke="#000" stroke-width=".8" id="line2d_11"/><text x="50.6" y="163.831" font-family="DejaVu Sans" font-size="10" font-weight="400" text-anchor="end" id="text_12">80</text></g><g id="ytick_6"><use x="57.6" xlink:href="#m254bce93e3" y="125.985" stroke="#000" stroke-width=".8" id="line2d_12"/><text x="50.6" y="129.785" font-family="DejaVu Sans" font-size="10" font-weight="400" text-anchor="end" id="text_13">100</text></g><g id="ytick_7"><use x="57.6" xlink:href="#m254bce93e3" y="91.939" stroke="#000" stroke-width=".8" id="line2d_13"/><text x="50.6" y="95.738" font-family="DejaVu Sans" font-size="10" font-weight="400" text-anchor="end" id="text_14">120</text></g><g id="ytick_8"><use x="57.6" xlink:href="#m254bce93e3" y="57.892" stroke="#000" stroke-width=".8" id="line2d_14"/><text x="50.6" y="61.691" font-family="DejaVu Sans" font-size="10" font-weight="400" text-anchor="end" id="text_15">140</text></g><text transform="rotate(-90 25.433 174.528)" x="25.433" y="174.528" font-family="DejaVu Sans" font-size="10" font-weight="400" text-anchor="middle" id="text_16">Coin Flips Needed</text></g><path clip-path="url(#p71856e9eb0)" d="M73.833 295.368l3.28.004 3.278.004 3.28.005 3.28.003 3.278.004 3.28.004 3.28.004 3.278.003 3.28.004 3.28.003 3.278.004 3.28.003 3.28.003 3.278.003 3.28.003 3.28.003 3.278.003 3.28.003 3.28.003 3.279.002 3.279.003 3.28.002 3.279.003 3.279.002 3.28.003 3.279.002 3.279.002 3.28.002 3.279.002 3.279.002 3.28.002 3.279.002 3.279.002 3.28.002 3.279.001 3.279.002 3.28.001 3.279.002 3.279.001 3.28.002 3.279.001 3.279.001 3.28.001 3.279.001 3.279.001 3.28.001 3.279.001 3.279.001h3.28l3.279.001 3.279.001h3.28l3.279.001h9.838l3.279.001h16.397l3.28-.001h3.278l3.28-.002h3.28l3.278-.001 3.28-.001 3.28-.002 3.278-.001 3.28-.001 3.28-.002 3.278-.002 3.28-.002 3.28-.002 3.278-.003 3.28-.002 3.28-.003 3.278-.004 3.28-.003 3.28-.004 3.279-.004 3.279-.005 3.28-.005 3.279-.006 3.279-.006 3.28-.007 3.279-.008 3.279-.009 3.28-.01 3.279-.011 3.279-.013 3.28-.016 3.279-.018 3.279-.022 3.28-.029 3.279-.039 3.279-.061 3.28-1.43" fill="none" stroke="#1f77b4" stroke-linecap="square" stroke-width="1.5" id="line2d_15"/><path clip-path="url(#p71856e9eb0)" d="M73.833 291.531l3.28.044 3.278-.047 3.28.037 3.28-.143 3.278.099 3.28.112 3.28-.068 3.278.034 3.28.014 3.28.081 3.278-.143 3.28.048 3.28.02 3.278-.003 3.28-.04 3.28.135 3.278-.105 3.28-.055 3.28.188 3.279-.113 3.279-.03 3.28-.034 3.279.003 3.279.075 3.28-.017 3.279.037 3.279.11 3.28-.103 3.279-.167 3.279.126 3.28.02 3.279-.023 3.279-.038 3.28.14 3.279-.255 3.279.143 3.28.013 3.279-.058 3.279.1 3.28-.117 3.279.137 3.279-.089 3.28.092 3.279-.082 3.279-.167 3.28.092 3.279.082 3.279-.105 3.28.04 3.279-.098 3.279.003 3.28.078 3.279-.173 3.279.007 3.28.04 3.279-.075 3.279.089 3.28-.082 3.279.03 3.28.055 3.278-.071 3.28-.003 3.28-.079 3.278-.034 3.28-.122 3.28.017 3.278-.075 3.28.337 3.28-.194 3.278-.188 3.28.028 3.28.098 3.278-.156 3.28.102 3.28-.249 3.278.034 3.28-.068 3.28-.187 3.278-.228 3.28.003 3.28-.05 3.279-.014 3.279-.028 3.28.02 3.279.066 3.279-.389 3.28-.347 3.279.249 3.279-.385 3.28.136 3.279-.79 3.279-.953 3.28.14 3.279-.613 3.279.422 3.28-1.57 3.279-1.522 3.279-2.502 3.28-228.692" fill="none" stroke="#ff7f0e" stroke-linecap="square" stroke-width="1.5" id="line2d_16"/><path d="M57.6 307.584V41.472" fill="none" stroke="#000" stroke-linecap="square" stroke-width=".8" id="patch_3"/><path d="M414.72 307.584V41.472" fill="none" stroke="#000" stroke-linecap="square" stroke-width=".8" id="patch_4"/><path d="M57.6 307.584h357.12" fill="none" stroke="#000" stroke-linecap="square" stroke-width=".8" id="patch_5"/><path d="M57.6 41.472h357.12" fill="none" stroke="#000" stroke-linecap="square" stroke-width=".8" id="patch_6"/><text x="236.16" y="35.472" font-family="DejaVu Sans" font-size="12" font-weight="400" text-anchor="middle" id="text_17">Coin Flips for arcsin(x)/2</text><g id="legend_1"><path d="M64.6 78.828h180.456q2 0 2-2V48.472q0-2-2-2H64.6q-2 0-2 2v28.356q0 2 2 2z" fill="#fff" opacity=".8" stroke="#ccc" id="patch_7"/><path d="M66.6 54.57h20" fill="none" stroke="#1f77b4" stroke-linecap="square" stroke-width="1.5" id="line2d_17"/><text x="94.6" y="58.07" font-family="DejaVu Sans" font-size="10" font-weight="400" id="text_18">Coin Flip Lower Bound</text><path d="M66.6 69.249h20" fill="none" stroke="#ff7f0e" stroke-linecap="square" stroke-width="1.5" id="line2d_19"/><text x="94.6" y="72.749" font-family="DejaVu Sans" font-size="10" font-weight="400" id="text_19">Avg. Coins Flipped arcsin(x)/2</text></g></g></g><defs><clipPath id="p71856e9eb0"><path d="M57.6 41.472h357.12v266.112H57.6z"/></clipPath></defs></svg>
